build/system/ChevronDownSolid.svg

<svg xmlns="http://www.w3.org/2000/svg" fill="none" viewBox="0 0 24 24" focusable="false"><path d="M0 0H24V24H0z"/><path fill="#74767B" fill-rule="evenodd" d="M12 21C16.9706 21 21 16.9706 21 12C21 7.02944 16.9706 3 12 3C7.02944 3 3 7.02944 3 12C3 16.9706 7.02944 21 12 21ZM7.60592 9.81369C7.46592 9.94369 7.39592 10.1137 7.39592 10.2937C7.39592 10.4537 7.44592 10.6037 7.56592 10.7337L11.4896 14.7737C11.7696 15.0837 12.2496 15.0837 12.5296 14.7737L16.4359 10.7137C16.6759 10.4437 16.6559 10.0337 16.3959 9.79369C16.1259 9.55369 15.7159 9.56369 15.4759 9.83369L12.0024 13.4073L8.52592 9.85369C8.28592 9.59369 7.87592 9.57369 7.60592 9.81369Z"/></svg>

<svg xmlns="http://www.w3.org/2000/svg" fill="none" viewBox="0 0 24 24" focusable="false"><path fill="#74767B" fill-rule="evenodd" d="M12 21a9 9 0 0 0 9-9c0-4.98-4.03-9-9-9-4.98 0-9 4.02-9 9 0 4.97 4.02 9 9 9M7.6 9.81c-.14.13-.21.3-.21.48 0 .16.05.31.17.44l3.92 4.04c.28.31.76.31 1.04 0l3.91-4.06c.24-.27.22-.68-.04-.92a.65.65 0 0 0-.92.04L12 13.4 8.52 9.85a.66.66 0 0 0-.92-.04"/></svg>
